Numix-GalliumOS/22/categories/applications-drawing.svg

<?xml version="1.0" encoding="UTF-8" standalone="no"?>
<svg
   xmlns:dc="http://purl.org/dc/elements/1.1/"
   xmlns:cc="http://creativecommons.org/ns#"
   xmlns:rdf="http://www.w3.org/1999/02/22-rdf-syntax-ns#"
   xmlns:svg="http://www.w3.org/2000/svg"
   xmlns="http://www.w3.org/2000/svg"
   xmlns:sodipodi="http://sodipodi.sourceforge.net/DTD/sodipodi-0.dtd"
   xmlns:inkscape="http://www.inkscape.org/namespaces/inkscape"
   width="22"
   height="22"
   viewBox="0 0 22 22"
   id="svg2"
   version="1.1"
   inkscape:version="0.91 r"
   sodipodi:docname="xfce-graphics.svg">
  <metadata
     id="metadata14">
    <rdf:RDF>
      <cc:Work
         rdf:about="">
        <dc:format>image/svg+xml</dc:format>
        <dc:type
           rdf:resource="http://purl.org/dc/dcmitype/StillImage" />
      </cc:Work>
    </rdf:RDF>
  </metadata>
  <defs
     id="defs12" />
  <sodipodi:namedview
     pagecolor="#ffffff"
     bordercolor="#666666"
     borderopacity="1"
     objecttolerance="10"
     gridtolerance="10"
     guidetolerance="10"
     inkscape:pageopacity="0"
     inkscape:pageshadow="2"
     inkscape:window-width="640"
     inkscape:window-height="480"
     id="namedview10" />
  <g
     style="fill:#f2469c"
     id="g4">
    <path
       d="M 17.417969 4.171875 L 9.453125 15.203125 C 8.8125 15.191406 7.933594 14.683594 7.5 14.203125 L 16.332031 3.699219 C 16.925781 3.589844 17.289062 3.75 17.417969 4.171875 Z "
       id="path6" />
    <path
       d="M 7.625 16.882812 C 8.550781 16.789062 9.980469 15.867188 9.3125 14.535156 C 7.710938 14.175781 8.074219 13.996094 8.074219 13.996094 C 5.871094 14.40625 4.199219 16.371094 4.660156 17.621094 C 4.953125 18.414062 4.902344 18.332031 4.902344 18.332031 C 5.515625 16.800781 5.523438 17.082031 7.625 16.882812 Z "
       id="path8" />
  </g>
</svg>

<svg xmlns="http://www.w3.org/2000/svg" viewBox="0 0 22 22">
 <g style="fill:#f2469c">
  <path d="m 17.418 4.172 l -7.965 11.03 c -0.641 -0.012 -1.52 -0.52 -1.953 -1 l 8.832 -10.504 c 0.594 -0.109 0.957 0.051 1.086 0.473 Z"/>
  <path d="m 7.625 16.883 c 0.926 -0.094 2.355 -1.016 1.688 -2.348 c -1.602 -0.359 -1.238 -0.539 -1.238 -0.539 c -2.203 0.41 -3.875 2.375 -3.414 3.625 c 0.293 0.793 0.242 0.711 0.242 0.711 c 0.613 -1.531 0.621 -1.25 2.723 -1.449 Z"/>
 </g>
</svg>
